build/images/ico/ticket.svg

<?xml version="1.0" encoding="UTF-8"?>
<svg width="32px" height="25px" viewBox="0 0 32 25" version="1.1" xmlns="http://www.w3.org/2000/svg" xmlns:xlink="http://www.w3.org/1999/xlink">
    <title>ticket-svgrepo-com-4@1x</title>
    <g id="1.-Design" stroke="none" stroke-width="1" fill="none" fill-rule="evenodd">
        <g id="Článek" transform="translate(-40, -435)" fill="#0B2A84" fill-rule="nonzero">
            <g id="Icons" transform="translate(16, 356)">
                <g id="ticket-svgrepo-com-4" transform="translate(24, 79)">
                    <path d="M30.4,9.375 C31.2836556,9.375 32,8.67544492 32,7.8125 L32,3.125 C32,1.39911016 30.5673112,0 28.8,0 L14.4,0 L14.4,4.6875 C14.4,5.55044492 13.6836556,6.25 12.8,6.25 C11.9163444,6.25 11.2,5.55044492 11.2,4.6875 L11.2,0 L3.2,0 C1.4326888,0 0,1.39911016 0,3.125 L0,7.8125 C0,8.67544492 0.7163444,9.375 1.6,9.375 C3.3673112,9.375 4.8,10.7741102 4.8,12.5 C4.8,14.2258898 3.3673112,15.625 1.6,15.625 C0.7163444,15.625 0,16.3245551 0,17.1875 L0,21.875 C0,23.6008898 1.4326888,25 3.2,25 L11.2,25 L11.2,20.3125 C11.2,19.4495551 11.9163444,18.75 12.8,18.75 C13.6836556,18.75 14.4,19.4495551 14.4,20.3125 L14.4,25 L28.8,25 C30.5673112,25 32,23.6008898 32,21.875 L32,17.1875 C32,16.3245551 31.2836556,15.625 30.4,15.625 C28.6326888,15.625 27.2,14.2258898 27.2,12.5 C27.2,10.7741102 28.6326888,9.375 30.4,9.375 Z M14.4,14.0625 C14.4,14.9254449 13.6836556,15.625 12.8,15.625 C11.9163444,15.625 11.2,14.9254449 11.2,14.0625 L11.2,10.9375 C11.2,10.0745551 11.9163444,9.375 12.8,9.375 C13.6836556,9.375 14.4,10.0745551 14.4,10.9375 L14.4,14.0625 Z" id="Shape"></path>
                </g>
            </g>
        </g>
    </g>
</svg>

<svg width="32" height="25" viewBox="0 0 32 25" xmlns="http://www.w3.org/2000/svg"><path d="M30.4 9.375c.884 0 1.6-.7 1.6-1.563V3.125C32 1.399 30.567 0 28.8 0H14.4v4.688c0 .862-.716 1.562-1.6 1.562-.884 0-1.6-.7-1.6-1.563V0h-8C1.433 0 0 1.4 0 3.125v4.688c0 .862.716 1.562 1.6 1.562 1.767 0 3.2 1.4 3.2 3.125 0 1.726-1.433 3.125-3.2 3.125-.884 0-1.6.7-1.6 1.563v4.687C0 23.601 1.433 25 3.2 25h8v-4.688c0-.862.716-1.562 1.6-1.562.884 0 1.6.7 1.6 1.563V25h14.4c1.767 0 3.2-1.4 3.2-3.125v-4.688c0-.862-.716-1.562-1.6-1.562-1.767 0-3.2-1.4-3.2-3.125 0-1.726 1.433-3.125 3.2-3.125zm-16 4.688c0 .862-.716 1.562-1.6 1.562-.884 0-1.6-.7-1.6-1.563v-3.124c0-.863.716-1.563 1.6-1.563.884 0 1.6.7 1.6 1.563v3.124z" fill="#0B2A84" fill-rule="nonzero"/></svg>
